X: 1
T: Cry Of The Celts
M: 9/8
L: 1/8
R: slip jig
K: Cmaj
EAA AGA A3|EAA AGA EGD|EAA AGA A2B|c3 cBA BAG|
EAA AGA A3|EAA AGA EGD|EAA AGA A2B|c3 cBc dec|
f3 fed edc|Add dcd AcG|A2f fed edc|d3 def gec|
f3 fed edc|Add dcd AcG|A2f fed edc|d3 def edc|
